svg/u00ae.svg

<svg viewBox="0 0 128 128" xmlns="http://www.w3.org/2000/svg">
  <path d="M4.51,58.36c0,0-2.87,20.96,9.33,39.44c10,15.14,25.92,25.31,48.06,25.78 c20.96,0.44,36.4-6.84,48.23-21.29c15.92-19.45,13.45-40.92,13.45-43.64c0-4.66-8.62,21.02-8.62,21.02l-24.28,31.6l-35.59,6.49 c0,0-28.44-12.47-28.61-13.14C26.31,103.95,4.51,58.36,4.51,58.36z" fill="#464C4F"/>
  <path d="M43.5,90.13c0,0-0.08,4.51,0.08,4.93c0.17,0.42,3.51,0.5,6.1,0.5c2.76,0,6.39,0.14,6.47-0.61 c0.12-1.08,0.07-5.01,0.07-5.01l-7.63-4.66L43.5,90.13z" fill="#464C4F"/>
  <path d="M53.7,69.15l1.5,4.26c0,0,10.75,1.56,17.94-1.12c7.19-2.67,11.81-6.5,14.04-12.36 c3-7.86-0.28-16.1-0.28-16.1l-10.3,16.7l-18.39,6.77L53.7,69.15z" fill="#464C4F"/>
  <path d="M64.14,35.22c-0.84,0.17-11.87,0.59-11.87,0.59l1.42,6.6c0,0,1.42-0.25,2.84-0.33 c1.42-0.08,9.82-0.94,13.46,1.25c5.27,3.18,5.52,8.11,5.52,8.11s8.19-3.26,7.19-5.02c-1-1.76-6.6-9.7-6.6-9.7L64.14,35.22z" fill="#464C4F"/>
  <path d="M75.38,89.48c0,0,2.8,4.55,3.36,4.71s7.15,0.14,9.23,0.18c4.25,0.09,4.35-1.7,2.92-4.33 c-1.66-3.07-3.34-4.98-3.34-4.98L75.38,89.48z" fill="#464C4F"/>
  <path d="M64.81,4.36C26.31,4.13,3.4,34.85,4.51,62.88c1.11,28.04,22.92,57.63,59.63,57.19 c36.71-0.45,58.63-31.05,59.46-58.03S101.3,4.59,64.81,4.36z M65.26,109.83c-21.58,0.89-48.73-16.24-48.06-45.62 c0.67-29.37,22.93-45.92,45.62-46.51c17.13-0.45,47.62,11.79,47.62,47.17C110.43,93.38,85.52,109,65.26,109.83z" fill="#606265"/>
  <path d="M90.14,88.79c-0.8-1.14-14.31-21.06-14.31-21.06s11.33-5.84,11.91-16.6c0.16-2.97,0-12.13-8.81-17.86 c-8.81-5.72-27.29-3.71-31.32-3.48c-4.03,0.23-4.11,2.01-4.26,3.64c-0.15,1.63,0.16,57.81,0.16,57.81s3.03,0.2,6.35,0.18 c3.55-0.02,6.35-0.02,6.35-0.02l-0.06-20.7l6.53,0.11l13.39,19.69c0,0,12.02-0.11,13.28,0C90.6,90.62,90.94,89.93,90.14,88.79z M64.04,60.06c-4.16,0.07-8.13-0.11-8.13-0.11L55.8,39.11c0,0,4.24-0.24,8.84,0.03c5.58,0.32,10.91,3.31,10.73,10.62 C75.18,57.67,70.45,59.94,64.04,60.06z" fill="#606265"/>
  <path d="M47.12,33.58c-1.31,1.13-1.48,8.55,0.26,8.89s3.49-3.84,4.88-4.88c1.4-1.05,5.52-2.53,5.41-3.84 C57.49,31.64,49.04,31.92,47.12,33.58z" fill="#9A9A9A"/>
  <path d="M79.21,52.33c-1.66-0.17-2.96,4.36-4.36,5.84c-1.4,1.48-4.82,2.93-4.45,4.62 c0.5,2.25,6.81,1.65,8.89-0.78C81.92,58.96,82.38,52.66,79.21,52.33z" fill="#9A9A9A"/>
  <path d="M10.06,45.44c-0.4,1.69-0.61,3.49,1.05,4.1s2.53-1.83,3.05-3.4c0.52-1.57,6.8-15.09,16.31-22.85 c10.33-8.44,23.2-11.34,25.03-11.86s3-1.78,2.7-2.88c-0.35-1.31-2.18-1.4-3.75-1.05C53.21,7.78,40.37,8.9,27.1,19.73 C14.28,30.19,10.5,43.61,10.06,45.44z" fill="#9A9A9A"/>
</svg>

<svg viewBox="0 0 128 128" xmlns="http://www.w3.org/2000/svg">
  <defs/>
  <path d="M4.51,58.36 C4.51,58.36 1.64,79.32 13.84,97.8 C23.84,112.94 39.76,123.11 61.9,123.58 C82.86,124.02 98.3,116.74 110.13,102.29 C126.05,82.84 123.58,61.37 123.58,58.65 C123.58,53.99 114.96,79.67 114.96,79.67 L90.68,111.27 L55.09,117.76 C55.09,117.76 26.65,105.29 26.48,104.62 C26.31,103.95 4.51,58.36 4.51,58.36 Z" fill="#464C4F"/>
  <path d="M43.5,90.13 C43.5,90.13 43.42,94.64 43.58,95.06 C43.75,95.48 47.09,95.56 49.68,95.56 C52.44,95.56 56.07,95.7 56.15,94.95 C56.27,93.87 56.22,89.94 56.22,89.94 L48.59,85.28 L43.5,90.13 Z" fill="#464C4F"/>
  <path d="M53.7,69.15 L55.2,73.41 C55.2,73.41 65.95,74.97 73.14,72.29 C80.33,69.62 84.95,65.79 87.18,59.93 C90.18,52.07 86.9,43.83 86.9,43.83 L76.6,60.53 L58.21,67.3 L53.7,69.15 Z" fill="#464C4F"/>
  <path d="M64.14,35.22 C63.3,35.39 52.27,35.81 52.27,35.81 L53.69,42.41 C53.69,42.41 55.11,42.16 56.53,42.08 C57.95,42 66.35,41.14 69.99,43.33 C75.26,46.51 75.51,51.44 75.51,51.44 C75.51,51.44 83.7,48.18 82.7,46.42 C81.7,44.66 76.1,36.72 76.1,36.72 L64.14,35.22 Z" fill="#464C4F"/>
  <path d="M75.38,89.48 C75.38,89.48 78.18,94.03 78.74,94.19 C79.3,94.35 85.89,94.33 87.97,94.37 C92.22,94.46 92.32,92.67 90.89,90.04 C89.23,86.97 87.55,85.06 87.55,85.06 L75.38,89.48 Z" fill="#464C4F"/>
  <path d="M64.81,4.36 C26.31,4.13 3.4,34.85 4.51,62.88 C5.62,90.92 27.43,120.51 64.14,120.07 C100.85,119.62 122.77,89.02 123.6,62.04 C124.43,35.06 101.3,4.59 64.81,4.36 Z M65.26,109.83 C43.68,110.72 16.53,93.59 17.2,64.21 C17.87,34.84 40.13,18.29 62.82,17.7 C79.95,17.25 110.44,29.49 110.44,64.87 C110.43,93.38 85.52,109 65.26,109.83 Z" fill="#606265"/>
  <path d="M90.14,88.79 C89.34,87.65 75.83,67.73 75.83,67.73 C75.83,67.73 87.16,61.89 87.74,51.13 C87.9,48.16 87.74,39 78.93,33.27 C70.12,27.55 51.64,29.56 47.61,29.79 C43.58,30.02 43.5,31.8 43.35,33.43 C43.2,35.06 43.51,91.24 43.51,91.24 C43.51,91.24 46.54,91.44 49.86,91.42 C53.41,91.4 56.21,91.4 56.21,91.4 L56.15,70.7 L62.68,70.81 L76.07,90.5 C76.07,90.5 88.09,90.39 89.35,90.5 C90.6,90.62 90.94,89.93 90.14,88.79 Z M64.04,60.06 C59.88,60.13 55.91,59.95 55.91,59.95 L55.8,39.11 C55.8,39.11 60.04,38.87 64.64,39.14 C70.22,39.46 75.55,42.45 75.37,49.76 C75.18,57.67 70.45,59.94 64.04,60.06 Z" fill="#606265"/>
  <path d="M47.12,33.58 C45.81,34.71 45.64,42.13 47.38,42.47 C49.12,42.81 50.87,38.63 52.26,37.59 C53.66,36.54 57.78,35.06 57.67,33.75 C57.49,31.64 49.04,31.92 47.12,33.58 Z" fill="#9A9A9A"/>
  <path d="M79.21,52.33 C77.55,52.16 76.25,56.69 74.85,58.17 C73.45,59.65 70.03,61.1 70.4,62.79 C70.9,65.04 77.21,64.44 79.29,62.01 C81.92,58.96 82.38,52.66 79.21,52.33 Z" fill="#9A9A9A"/>
  <path d="M10.06,45.44 C9.66,47.13 9.45,48.93 11.11,49.54 C12.77,50.15 13.64,47.71 14.16,46.14 C14.68,44.57 20.96,31.05 30.47,23.29 C40.8,14.85 53.67,11.95 55.5,11.43 C57.33,10.91 58.5,9.65 58.2,8.55 C57.85,7.24 56.02,7.15 54.45,7.5 C53.21,7.78 40.37,8.9 27.1,19.73 C14.28,30.19 10.5,43.61 10.06,45.44 Z" fill="#9A9A9A"/>
</svg>
